src/components/00-materials/images-raw/Safe.svg

<svg width="96" height="96" viewBox="0 0 96 96" fill="none" xmlns="http://www.w3.org/2000/svg">
<path d="M23 54V38M14 33V24C14 22.9391 14.4214 21.9217 15.1716 21.1716C15.9217 20.4214 16.9391 20 18 20H78C79.0609 20 80.0783 20.4214 80.8284 21.1716C81.5786 21.9217 82 22.9391 82 24V68C82 69.0609 81.5786 70.0783 80.8284 70.8284C80.0783 71.5786 79.0609 72 78 72H18C16.9391 72 15.9217 71.5786 15.1716 70.8284C14.4214 70.0783 14 69.0609 14 68V33Z" stroke="#00008F" stroke-width="2" stroke-linecap="round" stroke-linejoin="round"/>
<path d="M23 33V26C23 25.7348 23.1054 25.4804 23.2929 25.2929C23.4804 25.1054 23.7348 25 24 25H76C76.2652 25 76.5196 25.1054 76.7071 25.2929C76.8946 25.4804 77 25.7348 77 26V66C77 66.2652 76.8946 66.5196 76.7071 66.7071C76.5196 66.8946 76.2652 67 76 67H24C23.7348 67 23.4804 66.8946 23.2929 66.7071C23.1054 66.5196 23 66.2652 23 66V59" stroke="#00008F" stroke-width="2" stroke-linecap="round" stroke-linejoin="round"/>
<path d="M25.5 33H20.5C19.1193 33 18 34.1193 18 35.5C18 36.8807 19.1193 38 20.5 38H25.5C26.8807 38 28 36.8807 28 35.5C28 34.1193 26.8807 33 25.5 33Z" stroke="#00008F" stroke-width="2" stroke-linecap="round" stroke-linejoin="round"/>
<path d="M25.5 54H20.5C19.1193 54 18 55.1193 18 56.5C18 57.8807 19.1193 59 20.5 59H25.5C26.8807 59 28 57.8807 28 56.5C28 55.1193 26.8807 54 25.5 54Z" stroke="#00008F" stroke-width="2" stroke-linecap="round" stroke-linejoin="round"/>
<path d="M70 33V59M23 72H32V77H23V72ZM64 72H73V77H64V72Z" stroke="#00008F" stroke-width="2" stroke-linecap="round" stroke-linejoin="round"/>
<path d="M44 57C50.0751 57 55 52.0751 55 46C55 39.9249 50.0751 35 44 35C37.9249 35 33 39.9249 33 46C33 52.0751 37.9249 57 44 57Z" stroke="#00008F" stroke-width="2" stroke-linecap="round" stroke-linejoin="round"/>
<path d="M44 51C46.7614 51 49 48.7614 49 46C49 43.2386 46.7614 41 44 41C41.2386 41 39 43.2386 39 46C39 48.7614 41.2386 51 44 51Z" stroke="#00008F" stroke-width="2" stroke-linecap="round" stroke-linejoin="round"/>
</svg>

<svg width="96" height="96" viewBox="0 0 96 96" fill="none" xmlns="http://www.w3.org/2000/svg"><path d="M23 54V38m-9-5v-9a4 4 0 014-4h60a4 4 0 014 4v44a4 4 0 01-4 4H18a4 4 0 01-4-4V33z" stroke="#00008F" stroke-width="2" stroke-linecap="round" stroke-linejoin="round"/><path d="M23 33v-7a1 1 0 011-1h52a1 1 0 011 1v40a1 1 0 01-1 1H24a1 1 0 01-1-1v-7" stroke="#00008F" stroke-width="2" stroke-linecap="round" stroke-linejoin="round"/><path d="M25.5 33h-5a2.5 2.5 0 000 5h5a2.5 2.5 0 000-5zM25.5 54h-5a2.5 2.5 0 000 5h5a2.5 2.5 0 000-5zM70 33v26M23 72h9v5h-9v-5zm41 0h9v5h-9v-5zM44 57c6.075 0 11-4.925 11-11s-4.925-11-11-11-11 4.925-11 11 4.925 11 11 11z" stroke="#00008F" stroke-width="2" stroke-linecap="round" stroke-linejoin="round"/><path d="M44 51a5 5 0 100-10 5 5 0 000 10z" stroke="#00008F" stroke-width="2" stroke-linecap="round" stroke-linejoin="round"/></svg>
